Origami/64x64/apps/rosegarden.svg

<svg width="64" height="64" version="1" xmlns="http://www.w3.org/2000/svg">
 <path d="m39.369756 5.4924793c-7.617808-2.042194-15.396684 2.4486952-17.438602 10.068334-7.619781-2.041665-15.39688 2.448748-17.438597 10.068332-2.0419822 7.6186 2.448907 15.397476 10.068545 17.43939-2.041717 7.619586 2.448835 15.397284 10.068438 17.438996 7.619606 2.04171 15.397284-2.448836 17.438996-10.06844 7.619586 2.041716 15.397282-2.448834 17.438994-10.06844 2.041712-7.619604-2.448834-15.397282-10.06844-17.438994 2.041718-7.619586-2.448834-15.397282-10.06844-17.438994z" style="opacity:.2"/>
 <path d="m39.369756 4.4925622c-7.617808-2.042194-15.396684 2.4486952-17.438602 10.068334-7.619781-2.041665-15.39688 2.448748-17.438597 10.068332-2.0419822 7.6186 2.448907 15.397476 10.068545 17.43939-2.041717 7.619586 2.448835 15.397284 10.068438 17.438996 7.619606 2.04171 15.397284-2.448836 17.438996-10.06844 7.619586 2.041716 15.397282-2.448834 17.438994-10.06844 2.041712-7.619604-2.448834-15.397282-10.06844-17.438994 2.041718-7.619586-2.448834-15.397282-10.06844-17.438994z" style="fill:#c53b7c"/>
 <path d="m35.107422 4.0097656c-6.070071 0.2340233-11.516723 4.3598249-13.175781 10.550781-7.619781-2.041665-15.397736 2.448775-17.439454 10.068359-0.3941867 1.470704-0.538922 2.946493-0.4707031 4.386719 0.0260401-1.120084 0.1671995-2.254352 0.4707031-3.386719 2.0417174-7.619584 9.8196725-12.110024 17.439454-10.068359 2.041918-7.6196386 9.819692-12.110554 17.4375-10.06836h0.001953c6.148708 1.6475775 10.253838 7.0320255 10.539062 13.052734 0.149069-6.416232-4.051972-12.314486-10.539062-14.052734h-0.001953c-1.428339-0.3829114-2.860934-0.5364272-4.261719-0.4824219zm14.533203 17.986328c-0.061887 0.311788-0.11766 0.623884-0.201172 0.935547 6.148708 1.647577 10.253837 7.03202 10.539063 13.052734 0.147484-6.348152-3.967498-12.181582-10.337891-13.988281zm-35.28125 21.007812c-0.22952 1.156321-0.322359 2.309479-0.269531 3.441406 0.026721-1.116979 0.168121-2.247734 0.470703-3.376953-0.068839-0.018447-0.132846-0.045073-0.201172-0.064453z" style="fill:#ffffff;opacity:.1"/>
 <g transform="matrix(.98202868 1.7009085 -1.7009085 .98202868 43.502078 -9.9270779)" style="opacity:.2">
  <path d="m16 4c-3.324 0-6 2.676-6 6-3.324 0-6 2.676-6 6s2.676 6 6 6c0 3.324 2.676 6 6 6s6-2.676 6-6c3.324 0 6-2.676 6-6s-2.676-6-6-6c0-3.324-2.676-6-6-6z"/>
 </g>
 <g transform="matrix(.98202868 1.7009085 -1.7009085 .98202868 43.502078 -10.926995)" style="fill:#dc6ca0">
  <path d="m16 4c-3.324 0-6 2.676-6 6-3.324 0-6 2.676-6 6s2.676 6 6 6c0 3.324 2.676 6 6 6s6-2.676 6-6c3.324 0 6-2.676 6-6s-2.676-6-6-6c0-3.324-2.676-6-6-6z"/>
 </g>
 <g transform="matrix(1.7372675 .4655039 -.4655039 1.7372675 10.953527 .36147623)" style="opacity:.2">
  <path transform="translate(0,-1.5)" d="M 16,11.5 A 3,3 0 0 0 13.268,13.268 3,3 0 0 0 11.5,16 3,3 0 0 0 13.268,18.732 3,3 0 0 0 16,20.5 3,3 0 0 0 18.732,18.732 3,3 0 0 0 20.5,16 3,3 0 0 0 18.732,13.268 3,3 0 0 0 16,11.5 Z"/>
 </g>
 <g transform="matrix(1.7372675 .4655039 -.4655039 1.7372675 10.953527 -.63844086)" style="fill:#f0a9ca">
  <path transform="translate(0,-1.5)" d="M 16,11.5 A 3,3 0 0 0 13.268,13.268 3,3 0 0 0 11.5,16 3,3 0 0 0 13.268,18.732 3,3 0 0 0 16,20.5 3,3 0 0 0 18.732,18.732 3,3 0 0 0 20.5,16 3,3 0 0 0 18.732,13.268 3,3 0 0 0 16,11.5 Z"/>
 </g>
 <g transform="matrix(.98202868 1.7009085 -1.7009085 .98202868 43.502078 -10.926995)" style="fill:#ffffff;opacity:.1">
  <path transform="matrix(.25457843 -.44093887 .44093887 .25457843 -6.256554 21.963535)" d="m25.796875 10.003906c-1.898765 0.051295-3.815213 0.565855-5.582031 1.585938-3.953547 2.282601-6.073681 6.479324-5.88086 10.730468 0.155754-3.898736 2.237931-7.627204 5.88086-9.730468 5.65382-3.2642636 12.833393-1.34132 16.097656 4.3125 5.65382-3.264264 12.833393-1.34132 16.097656 4.3125 0.979904 1.697228 1.484047 3.532401 1.56836 5.357422 0.084068-2.149009-0.409111-4.349562-1.56836-6.357422-3.264263-5.65382-10.443836-7.576764-16.097656-4.3125-2.244181-3.887001-6.338342-6.0112869-10.515625-5.898438zm-10.279297 17.931641c-3.702904 2.330341-5.6859978 6.38154-5.496094 10.492187 0.152655-3.902262 2.234901-7.63522 5.88086-9.740234-0.142342-0.24654-0.262033-0.500062-0.384766-0.751953zm32.964844 9.128906c-0.129584 0.081551-0.250986 0.170808-0.384766 0.248047 0.981662 1.700274 1.485434 3.538928 1.56836 5.367188 0.075434-1.888245-0.305266-3.812589-1.183594-5.615235z" style="fill:#ffffff"/>
 </g>
 <g transform="matrix(1.7372675 .4655039 -.4655039 1.7372675 10.953527 -.63844086)" style="fill:#ffffff;opacity:.2">
  <path transform="matrix(.5370569 -.14390535 .14390535 .5370569 -5.7907922 1.9191502)" d="m32.492188 24.003906a5.3956585 5.3956585 0 0 0 -3.966797 1.978516 5.3956585 5.3956585 0 0 0 -4.34375 3.921875 5.3956585 5.3956585 0 0 0 -0.152344 1.886719 5.3956585 5.3956585 0 0 1 0.152344 -0.886719 5.3956585 5.3956585 0 0 1 4.34375 -3.921875 5.3956585 5.3956585 0 0 1 5.570312 -1.800781 5.3956585 5.3956585 0 0 1 3.921875 4.34375 5.3956585 5.3956585 0 0 1 1.953125 3.68164 5.3956585 5.3956585 0 0 0 -1.953125 -4.68164 5.3956585 5.3956585 0 0 0 -3.921875 -4.34375 5.3956585 5.3956585 0 0 0 -1.603515 -0.177735z" style="fill:#ffffff"/>
 </g>
</svg>

<svg xmlns="http://www.w3.org/2000/svg" width="64" height="64" version="1">
 <path style="opacity:0.2" d="M 39.369756,5.4924793 C 31.751948,3.4502853 23.973072,7.9411745 21.931154,15.560813 14.311373,13.519148 6.5342744,18.009561 4.492557,25.629145 c -2.0419822,7.6186 2.448907,15.397476 10.068545,17.43939 -2.041717,7.619586 2.448835,15.397284 10.068438,17.438996 7.619606,2.04171 15.397284,-2.448836 17.438996,-10.06844 7.619586,2.041716 15.397282,-2.448834 17.438994,-10.06844 C 61.549242,32.751047 57.058696,24.973369 49.43909,22.931657 51.480808,15.312071 46.990256,7.5343747 39.37065,5.4926627 Z"/>
 <path style="fill:#c53b7c" d="M 39.369756,4.4925622 C 31.751948,2.4503682 23.973072,6.9412574 21.931154,14.560896 14.311373,12.519231 6.5342744,17.009644 4.492557,24.629228 c -2.0419822,7.6186 2.448907,15.397476 10.068545,17.43939 -2.041717,7.619586 2.448835,15.397284 10.068438,17.438996 7.619606,2.04171 15.397284,-2.448836 17.438996,-10.06844 C 49.688122,51.48089 57.465818,46.99034 59.50753,39.370734 61.549242,31.75113 57.058696,23.973452 49.43909,21.93174 51.480808,14.312154 46.990256,6.5344576 39.37065,4.4927456 Z"/>
 <path style="fill:#ffffff;opacity:0.1" d="M 35.107422 4.0097656 C 29.037351 4.2437889 23.590699 8.3695905 21.931641 14.560547 C 14.31186 12.518882 6.5339049 17.009322 4.4921875 24.628906 C 4.0980008 26.09961 3.9532655 27.575399 4.0214844 29.015625 C 4.0475245 27.895541 4.1886839 26.761273 4.4921875 25.628906 C 6.5339049 18.009322 14.31186 13.518882 21.931641 15.560547 C 23.973559 7.9409084 31.751333 3.4499935 39.369141 5.4921875 L 39.371094 5.4921875 C 45.519802 7.139765 49.624932 12.524213 49.910156 18.544922 C 50.059225 12.12869 45.858184 6.2304361 39.371094 4.4921875 L 39.369141 4.4921875 C 37.940802 4.1092761 36.508207 3.9557603 35.107422 4.0097656 z M 49.640625 21.996094 C 49.578738 22.307882 49.522965 22.619978 49.439453 22.931641 C 55.588161 24.579218 59.69329 29.963661 59.978516 35.984375 C 60.126 29.636223 56.011018 23.802793 49.640625 21.996094 z M 14.359375 43.003906 C 14.129855 44.160227 14.037016 45.313385 14.089844 46.445312 C 14.116565 45.328333 14.257965 44.197578 14.560547 43.068359 C 14.491708 43.049912 14.427701 43.023286 14.359375 43.003906 z"/>
 <g style="opacity:0.2" transform="matrix(0.98202868,1.7009085,-1.7009085,0.98202868,43.502078,-9.9270779)">
  <path d="m 16,4 c -3.324,0 -6,2.676 -6,6 -3.324,0 -6,2.676 -6,6 0,3.324 2.676,6 6,6 0,3.324 2.676,6 6,6 3.324,0 6,-2.676 6,-6 3.324,0 6,-2.676 6,-6 0,-3.324 -2.676,-6 -6,-6 0,-3.324 -2.676,-6 -6,-6 z"/>
 </g>
 <g style="fill:#dc6ca0" transform="matrix(0.98202868,1.7009085,-1.7009085,0.98202868,43.502078,-10.926995)">
  <path d="m 16,4 c -3.324,0 -6,2.676 -6,6 -3.324,0 -6,2.676 -6,6 0,3.324 2.676,6 6,6 0,3.324 2.676,6 6,6 3.324,0 6,-2.676 6,-6 3.324,0 6,-2.676 6,-6 0,-3.324 -2.676,-6 -6,-6 0,-3.324 -2.676,-6 -6,-6 z"/>
 </g>
 <g style="opacity:0.2" transform="matrix(1.7372675,0.4655039,-0.4655039,1.7372675,10.953527,0.36147623)">
  <path d="M 16,11.5 A 3,3 0 0 0 13.268,13.268 3,3 0 0 0 11.5,16 3,3 0 0 0 13.268,18.732 3,3 0 0 0 16,20.5 3,3 0 0 0 18.732,18.732 3,3 0 0 0 20.5,16 3,3 0 0 0 18.732,13.268 3,3 0 0 0 16,11.5 Z" transform="translate(0,-1.5)"/>
 </g>
 <g style="fill:#f0a9ca" transform="matrix(1.7372675,0.4655039,-0.4655039,1.7372675,10.953527,-0.63844086)">
  <path d="M 16,11.5 A 3,3 0 0 0 13.268,13.268 3,3 0 0 0 11.5,16 3,3 0 0 0 13.268,18.732 3,3 0 0 0 16,20.5 3,3 0 0 0 18.732,18.732 3,3 0 0 0 20.5,16 3,3 0 0 0 18.732,13.268 3,3 0 0 0 16,11.5 Z" transform="translate(0,-1.5)"/>
 </g>
 <g style="fill:#ffffff;opacity:0.1" transform="matrix(0.98202868,1.7009085,-1.7009085,0.98202868,43.502078,-10.926995)">
  <path style="fill:#ffffff" d="M 25.796875 10.003906 C 23.89811 10.055201 21.981662 10.569761 20.214844 11.589844 C 16.261297 13.872445 14.141163 18.069168 14.333984 22.320312 C 14.489738 18.421576 16.571915 14.693108 20.214844 12.589844 C 25.868664 9.3255804 33.048237 11.248524 36.3125 16.902344 C 41.96632 13.63808 49.145893 15.561024 52.410156 21.214844 C 53.39006 22.912072 53.894203 24.747245 53.978516 26.572266 C 54.062584 24.423257 53.569405 22.222704 52.410156 20.214844 C 49.145893 14.561024 41.96632 12.63808 36.3125 15.902344 C 34.068319 12.015343 29.974158 9.8910571 25.796875 10.003906 z M 15.517578 27.935547 C 11.814674 30.265888 9.8315802 34.317087 10.021484 38.427734 C 10.174139 34.525472 12.256385 30.792514 15.902344 28.6875 C 15.760002 28.44096 15.640311 28.187438 15.517578 27.935547 z M 48.482422 37.064453 C 48.352838 37.146004 48.231436 37.235261 48.097656 37.3125 C 49.079318 39.012774 49.58309 40.851428 49.666016 42.679688 C 49.74145 40.791443 49.36075 38.867099 48.482422 37.064453 z" transform="matrix(0.25457843,-0.44093887,0.44093887,0.25457843,-6.256554,21.963535)"/>
 </g>
 <g style="fill:#ffffff;opacity:0.2" transform="matrix(1.7372675,0.4655039,-0.4655039,1.7372675,10.953527,-0.63844086)">
  <path style="fill:#ffffff" d="M 32.492188 24.003906 A 5.3956585 5.3956585 0 0 0 28.525391 25.982422 A 5.3956585 5.3956585 0 0 0 24.181641 29.904297 A 5.3956585 5.3956585 0 0 0 24.029297 31.791016 A 5.3956585 5.3956585 0 0 1 24.181641 30.904297 A 5.3956585 5.3956585 0 0 1 28.525391 26.982422 A 5.3956585 5.3956585 0 0 1 34.095703 25.181641 A 5.3956585 5.3956585 0 0 1 38.017578 29.525391 A 5.3956585 5.3956585 0 0 1 39.970703 33.207031 A 5.3956585 5.3956585 0 0 0 38.017578 28.525391 A 5.3956585 5.3956585 0 0 0 34.095703 24.181641 A 5.3956585 5.3956585 0 0 0 32.492188 24.003906 z" transform="matrix(0.5370569,-0.14390535,0.14390535,0.5370569,-5.7907922,1.9191502)"/>
 </g>
</svg>
